!!!COM: Robert Schumann
!!!CNT: Deutscher
!!!TXO: Deutsche 
!!!OTL: Helft mir, ihr Schwestern
!!!OPR: Frauenliebe und Leben
!!!OPS: Opus 42
!!!ONM: No. 5
!!!LYR: Chamisso
!!!ENC: Brian Bice
!!!YOR: Sa2mtliche Lieder, vol. 1, C.F. Peters
!!!ODT: 1840/
!!NB: Vocal melody and text only encoded.
**kern	**silbe
*clefG2	*
*k[b-e-]	*
*M4/4	*
=3	=3
{4f	{Helft
8f	mir,
8f	ihr
4.g	Schwest-
8f	-ern,
=4	=4
4f	freund-
8f	-lich
8f	mich
4.dd	schmu2ck-
8b-}	-en,}
=5	=5
{(4dd	{dient
8cc)	|
8b-	der
(8dd	Glu2ck-
8cc)	|
8a	-li-
8f	-chen
=6	=6
(4b-	heu-
8a)	|
8g	-te,
4f}	mir.}
4r	.
=7	=7
{4f	{Win-
8f	-det
8f	de-
4.g	-scha2f-
8f	-tig
=8	=8
4f	mir
8f	um
8f	die
4.dd	Stir-
8b-}	-ne}
=9	=9
{(4dd	{noch
8cc)	|
8b-	der
(8dd	blu2-
8cc)	|
8f	-hen-
8g	-den
=10	=10
4.a	Myr-
8g	-te
4f}	Zier.}
4r	.
=11	=11
{4f	{Als
8f	ich
8f	be-
4.g	-frie-
8f	-digt,
=12	=12
4a	freu-
8a	-di-
8a	-gen
4.cc	Her-
8b-}	-zens,}
=13	=13
{4ee-	{sonst
8ee-	dem
8dd	Ge-
4cc	-lieb-
8b-	-ten
8b-	im
=14	=14
(4a	Ar-
8b-)	|
8g	-me
2a}	lag,}
=15	=15
{4b-	{im-
8b-	-mer
8b-	noch
4cc	rief
4b-	er,
=16	=16
4dd	Sehn-
8dd	-sucht
8dd	im
4ff	Her-
4ee-}	-zen,}
=17	=17
{4.gg	{un-
8ff	-ge-
4ee-	-dul-
8dd	-dig
8dd	den
=18	=18
4cc	heu-
8dd	-ti-
8b-	-gen
2cc}	tag.}
=19	=19
{4f	{Helft
8f	mir,
8f	ihr
4.g	Schwe-
8f	-stern,
=20	=20
4f	helft
8f	mir
8f	ver-
4.dd	-scheu-
8b-}	-chen}
=21	=21
{(4dd	{ei-
8cc)	|
8b-	-ne
(8dd	to2-
8cc)	|
8a	-rich-
8f	-te
=22	=22
(4b-	Ban-
8a)	|
8g	-gig-
4f}	-keit;}
4r	.
=23	=23
{4f	{dass
8f	ich
8f	mit
4.g	kla-
8f	-rem
=24	=24
4f	Aug'
8f	ihn
8f	emp-
4.dd	-fan-
8b-}	-ge,}
=25	=25
{(4dd	{ihn,
8cc)	|
8b-	die
(8dd	Quel-
8cc)	|
8f	-le
8g	der
=26	=26
4a	Freu-
4g	-dig-
4f}	-keit.}
4r	.
=27	=27
{4f	{Bist,
8f	mein
8f	Ge-
4.cc	-lieb-
8f	-ter,
=28	=28
4g	du
8g	mir
8g	er-
4.dd	-schie-
8g}	-nen,}
=29	=29
{4g	{gibst
8g	du
8g	mir,
4.ee-	Son-
8dd	-ne,
=30	=30
(4ccS	dei-
8dd)	|
8b-	-nen
4cc}	Schein?}
4r	.
=31	=31
{4g	{lass
8g	mich
8g	in
4.dd	An-
8g	-dacht,
=32	=32
4g	lass
8g	mich
8g	in
4.een	De-
8a}	-mut,}
=33	=33
{4a	{lass
8a	mich
8a	ver-
4ff	-nei-
8ee-	-gen
8ee-	dem
=34	=34
(4dd	Her-
8cc)	|
8b-	-ren
[2ff	mein.
=35	=35
1ff]}	|}
=37	=37
{4f	{Streu-
8f	-et
8f	ihm
4.g	Schwest-
8f	-ern,
=38	=38
4f	streu-
8f	-et
8f	ihm
4.dd	Blu-
8b-}	-men,}
=39	=39
{4dd	{brin-
8cc	-get
8b-	ihm
(8dd	kno-
8cc)	|
8a	-spen-
8f	-de
=40	=40
(4b-	Ro-
8a)	|
8g	-sen
4f}	dar.}
4r	.
=41	=41
{4b-	{A-
8a-	-ber
8g-	euch,
(8b-	Schwe-
8a-)	|
(8f	-stern,
8d-)	|
=42	=42
4g-	gru2ss
8f	ich
8en	mit
4en	Weh-
4f}	-mut,}
=43	=43
{4f	{freu-
4f#	-dig
4gn	schei-
8an	-dend
8b-	aus
=44	=44
4dd	eu-
4cc	-rer
2b-}	Schar,}
=45	=45
{4.f	{freu-
8f	-dig
4dd	schei-
8b-	-dend
8b-	aus
=46	=46
4f	eu-
4d	-rer
2B-}	Schar.}
*-	*-
